X: 21353
M: 6/8
L: 1/8
K: G
|:\
g2g gag | f2f fgf | e2e efg | {fg}a2g fed |\
g2g gag | f2f fgf | efg afd | g3 g2d |
gag gag | fgf fgf | efe efg | {fg}a2g fed |\
g3 Bcd | e3 ABc | dBG cAF | G3 G3 |]


